src/icons/svg/WarningFilled.svg

<svg width="24" height="24" viewBox="0 0 24 24" fill="none" xmlns="http://www.w3.org/2000/svg">
<path d="M23.414 21.578L12.724 2.81999C12.576 2.55999 12.299 2.40199 11.999 2.40199C11.699 2.40199 11.423 2.56199 11.275 2.81999L0.587003 21.578C0.442003 21.832 0.445003 22.144 0.593003 22.395C0.741003 22.646 1.015 22.802 1.311 22.802H22.689C22.982 22.802 23.257 22.648 23.407 22.395C23.555 22.143 23.559 21.832 23.415 21.578H23.414ZM13.32 20.402H10.68V18.002H13.32V20.402ZM13.32 16.202H10.68V9.00199H13.32V16.202Z" fill="#1C2125"/>
</svg>

<!-- Generated by IcoMoon.io -->
<svg version="1.1" xmlns="http://www.w3.org/2000/svg" width="24" height="24" viewBox="0 0 24 24">
<title>warning-filled</title>
<path fill="#444" d="M23.414 21.578l-10.69-18.758c-0.148-0.26-0.425-0.418-0.725-0.418s-0.576 0.16-0.724 0.418l-10.688 18.758c-0.145 0.254-0.142 0.566 0.006 0.817s0.422 0.407 0.718 0.407h21.378c0.293 0 0.568-0.154 0.718-0.407 0.148-0.252 0.152-0.563 0.008-0.817zM13.32 20.402h-2.64v-2.4h2.64v2.4zM13.32 16.202h-2.64v-7.2h2.64v7.2z"></path>
</svg>
